X: 361
T: Lady Lucy Ramsay
C: Trad. arr. Bert Murray
R: strathspey
B: Bert Murray's "Bon Accord Collection" 1999 p.36
%
Z: 2011 John Chambers <jc:trillian.mit.edu>
M: C
L: 1/8
K: C
ug |\
e<g g>a g>ec>a | g>ca>c e<d d>g | e<g g>a g>ag>e | f>dB>g (e<c) c :|
uc |\
G>cE>c d>cd>e | c<c e>d c<A A>c | G>cE>c d>cd>e | c>AG>F (E<C) C2 |
G>cE>c d>cd>e | c<c e>d c<A A>c | G>cE>c F>cE>c | A>ag>f (e<c) c |]

%%sep 2 1 500

